public/assets/(common)/accordion-icons/accordion-arrow-up.svg

<svg fill="none" height="20" viewBox="0 0 39 20" width="39" xmlns="http://www.w3.org/2000/svg" xmlns:xlink="http://www.w3.org/1999/xlink"><clipPath id="a"><path d="m0 0h20v39h-20z" transform="matrix(0 -1 -1 0 39 20)"/></clipPath><g clip-path="url(#a)"><path d="m28.3074 15.9134 1.7225-1.7684-9.3877-9.63165c-.1504-.15525-.3293-.27847-.5263-.36255s-.4083-.12736-.6217-.12736-.4247.04328-.6218.12736c-.197.08408-.3759.2073-.5263.36255l-9.39249 9.63165 1.72249 1.7667 8.8156-9.04001z" fill="#282828"/></g></svg>

<svg width="39" height="20" viewBox="0 0 39 20" fill="none" xmlns="http://www.w3.org/2000/svg">
<g clip-path="url(#clip0_502_30)">
<path d="M28.3074 15.9134L30.0299 14.145L20.6422 4.51335C20.4918 4.3581 20.3129 4.23488 20.1159 4.1508C19.9189 4.06672 19.7076 4.02344 19.4942 4.02344C19.2808 4.02344 19.0695 4.06672 18.8724 4.1508C18.6754 4.23488 18.4965 4.3581 18.3461 4.51335L8.95361 14.145L10.6761 15.9117L19.4917 6.87169L28.3074 15.9134Z" fill="#282828"/>
</g>
<defs>
<clipPath id="clip0_502_30">
<rect width="20" height="39" fill="white" transform="matrix(0 -1 -1 0 39 20)"/>
</clipPath>
</defs>
</svg>
